themes/vice/icons/redshift-status-on.svg

<svg xmlns="http://www.w3.org/2000/svg" width="16" height="16" version="1">
 <path style="fill:#dfdfdf" d="M 7.4921875 1.8652344 L 7.0898438 3.0878906 L 5.8652344 3.4921875 L 7.0898438 3.8964844 L 7.4921875 5.1191406 L 7.8964844 3.8964844 L 9.1210938 3.4921875 L 7.8964844 3.0878906 L 7.4921875 1.8652344 z M 10.546875 2.7675781 L 10.345703 3.3789062 L 9.734375 3.5820312 L 10.345703 3.7832031 L 10.546875 4.3945312 L 10.75 3.7832031 L 11.361328 3.5820312 L 10.75 3.3789062 L 10.546875 2.7675781 z M 3.5117188 2.8125 L 2.8378906 4.8515625 L 0.80078125 5.5234375 L 2.8378906 6.1972656 L 3.5117188 8.2363281 L 4.1855469 6.1972656 L 6.2246094 5.5234375 L 4.1855469 4.8515625 L 3.5117188 2.8125 z M 12.109375 5 C 12.729056 5.7508806 13.103516 6.710165 13.103516 7.7597656 C 13.103516 10.158766 11.158866 12.103516 8.7597656 12.103516 C 7.7101656 12.103516 6.7509 11.729054 6 11.109375 C 6.52525 13.348275 8.5326405 15 10.931641 15 C 13.730541 15 16 12.73054 16 9.9316406 C 16 7.5325403 14.348275 5.5251995 12.109375 5 z"/>
</svg>

<svg xmlns="http://www.w3.org/2000/svg" width="16" height="16" version="1">
    <path style="fill:#dfdfdf" d="M7.492 1.865 7.09 3.088l-1.225.404 1.225.404.402 1.223.404-1.223 1.225-.404-1.225-.404-.404-1.223zm3.055.903-.201.61-.612.204.612.201.2.612.204-.612.611-.201-.611-.203-.203-.611zm-7.035.045-.674 2.039L.8 5.523l2.037.674.674 2.04.674-2.04 2.039-.674-2.04-.671-.673-2.04zM12.109 5c.62.75.995 1.71.995 2.76a4.344 4.344 0 0 1-4.344 4.344A4.319 4.319 0 0 1 6 11.109 5.054 5.054 0 0 0 10.932 15 5.069 5.069 0 0 0 16 9.932c0-2.4-1.652-4.407-3.89-4.932z"/>
</svg>
